X:15
T: Smiling Bride
C: C.Lennon
S: De Danann
Z: B.Black
R: jig
M: 6/8
L: 1/8
K: D
E3 FDD | FEE cde | dcA GEA, | CDE GAG |
E3 FDD | FEE cde | dcA GEC | EDC DAF |
E3 FDD | FEE cde | dcA GED | CDE GAB |
cAG EFG | FdF GFG | AdB cAG | EDC D2 g |
fgf fdA | fda agf | efe ecA | cde gag |
fgf fda | fda afd | Bef gab | aec d2 e |
fag fdA | daa agf | e2 e ecA | cde g3 |
gfa baf | fge dAF | GAB Ace | dgf ecA | d6 ||
